X:1
T:chuunckey ghazz rithems
T:chuunckey ghazz rithems
%%score [ 1 2 3 4 ]
L:1/8
Q:1/4=150
M:4/4
K:F
V:1 treble nm="Soprano" snm="S."
V:2 treble nm="Alto" snm="A."
V:3 treble-8 nm="Tenor" snm="T."
V:4 bass nm="Bass" snm="B."
V:1
 d z _e z fedc | z2 z2 z2 z2 | B z z2 z2 z2 | z2 z2 z2 z2 | z2 z2 z2 z2 | z2 z2 z2 z2 | %6
 z2 z2 z2 z2 | z2 z2 z2 z2 | z2 z2 z2 z2 | z2 z2 z2 z2 | z8 | z2 z2 z4 | z2 z2 z2 z2 | z8 | z8 | %15
 z8 | z8 | z8 | z8 | z8 | z8 | z8 | z8 | z8 | z8 | z8 | z8 | z8 | z8 | z8 | z8 | z8 |] %32
V:2
 [CA] z [DB] z z ABc | z B z A z G z z | G z A z z GAB | z c z _d z _e=ef | z cFE F z z2 | %5
 z z z z z z z2 | z8 | z8 | z8 | z8 | z8 | z8 | z8 | z8 | z8 | z8 | z8 | z8 | z8 | z8 | z8 | z8 | %22
 z8 | z8 | z8 | z8 | z8 | z8 | z8 | z8 | z8 | z8 |] %32
V:3
 F z z z C_E z F | z _E z D z C z z | z z z z z z z z | z z z z z z z z | z8 | z8 | z8 | z8 | z8 | %9
 z8 | z8 | z8 | z8 | z8 | z8 | z8 | z8 | z8 | z8 | z8 | z8 | z8 | z8 | z8 | z8 | z8 | z8 | z8 | %28
 z8 | z8 | z8 | z8 |] %32
V:4
 F,, z z z C,, z C,, z | F,, z E,, z _E,, z D,, z | C,, z z z G,,, z z C,, | %3
 z D,, z _E,, z =E,,D,C, | z8 | z8 | z8 | z8 | z8 | z8 | z8 | z8 | z8 | z8 | z8 | z8 | z8 | z8 | %18
 z8 | z8 | z8 | z8 | z8 | z8 | z8 | z8 | z8 | z8 | z8 | z8 | z8 | z8 |] %32

